X: 18648
T: I'd Rather Have A Piece Than A Kiss
R: jig
M: 6/8
K: Dmajor
|:gfe edB|gfg GAB|gfe edB|d2A A2f|
gfe edB|gfg a2a|gfe d2g|1 BAA A2f:|2 BAA A2B||
|:d2G d2B|gfg GAB|d2G d2e|d2A A2B|
[1d2G d2B|gfg a2a|gfe efg|BAA A2B:|
[2ded BAB|GAB gfg|a2 a efg|BAA A2f||

